packages/icons/src/assets/google.svg

<svg width="16" height="16" viewBox="0 0 16 16" fill="none" xmlns="http://www.w3.org/2000/svg">
  <g clip-path="url(#clip0_5174_17)">
    <path d="M15.4587 7.93961L15.412 8.61281C15.3096 10.0896 14.7899 11.7943 13.631 13.1414C12.4554 14.5079 10.6613 15.4587 8.12572 15.4587C3.94924 15.4587 0.541361 12.1314 0.541351 8C0.541351 3.86862 3.94924 0.541351 8.12572 0.541351C10.0869 0.541353 11.8793 1.27519 13.2261 2.48129L13.6942 2.90061L12.8582 3.83979L12.3901 3.42047C11.2672 2.41487 9.77033 1.80041 8.12572 1.80041C4.61699 1.80041 1.7966 4.58929 1.7966 8C1.79661 11.4107 4.617 14.1996 8.12572 14.1996C10.3141 14.1996 11.7548 13.3949 12.6806 12.3188C13.4597 11.4132 13.9009 10.2823 14.0804 9.19867H8.49494V7.93961H15.4587Z" fill="currentColor"/>
  </g>
  <defs>
    <clipPath id="clip0_5174_17">
      <rect width="16" height="16" fill="white"/>
    </clipPath>
  </defs>
</svg>

<svg xmlns="http://www.w3.org/2000/svg" width="16" height="16" viewBox="0 0 16 16"><path d="m15.459 7.94-.047.673c-.102 1.477-.622 3.181-1.781 4.528-1.176 1.367-2.97 2.318-5.505 2.318C3.949 15.459.54 12.13.54 8S3.95.541 8.126.541c1.96 0 3.753.734 5.1 1.94l.468.42-.836.939-.468-.42A6.37 6.37 0 0 0 8.126 1.8c-3.509 0-6.33 2.79-6.33 6.2s2.821 6.2 6.33 6.2c2.188 0 3.629-.805 4.555-1.881.779-.906 1.22-2.037 1.4-3.12H8.494v-1.26z"/></svg>
